X:313
T: BRUEDER NUETZT DAS FREIE LEBEN
N: F0541
O: Europa, Mitteleuropa, Deutschland
R: Studenten -, Trink - Lied
M: 3/2
L: 1/8
K: Bb
B2F2 | G4A4BcdB | F4D4
F2B2 | G4e4dcBA | B4z4
B2F2 | G4A4BcdB | F4D4
F2B2 | G4e4dcBA | B4z4
A2B2 | c4f4c2A2 | Bcdef2z2
g2g2 | f6d2fedc | c4B2z2

